korla/status/symbolic/changes-prevent-symbolic.svg

<svg style="clip-rule:evenodd;fill-rule:evenodd;stroke-linejoin:round;stroke-miterlimit:2" version="1.1" viewBox="0 0 16 16" xmlns="http://www.w3.org/2000/svg">
 <path d="m8 1c-2.216 0-4 1.784-4 4v2h-1c-0.554 0-1 0.446-1 1v6c0 0.554 0.446 1 1 1h10c0.554 0 1-0.446 1-1v-6c0-0.554-0.446-1-1-1h-1v-2c0-2.216-1.784-4-4-4zm5.032 7.765c0-0.422-0.343-0.765-0.765-0.765h-8.534c-0.422 0-0.765 0.343-0.765 0.765v4.703c0 0.422 0.343 0.765 0.765 0.765h8.534c0.422 0 0.765-0.343 0.765-0.765v-4.703zm-5.032-5.765c1.108 0 2 0.892 2 2v2h-4v-2c0-1.108 0.892-2 2-2z" style="fill:rgb(223,223,223)"/>
 <g transform="matrix(1.05187 0 0 1.02614 -.446259 -.20915)">
  <path d="m12.814 8.746c0-0.412-0.326-0.746-0.727-0.746h-8.114c-0.401 0-0.727 0.334-0.727 0.746v4.583c0 0.411 0.326 0.745 0.727 0.745h8.114c0.401 0 0.727-0.334 0.727-0.745v-4.583z" style="fill-opacity:.5;fill:rgb(235,235,235)"/>
 </g>
</svg>

<svg xmlns="http://www.w3.org/2000/svg" width="16" height="16" version="1.1">
 <path style="fill:#dfdfdf" d="M 8,1 C 5.784,1 4,2.784 4,5 V 7 H 3 C 2.446,7 2,7.446 2,8 V 14 C 2,14.554 2.446,15 3,15 H 13 C 13.554,15 14,14.554 14,14 V 8 C 14,7.446 13.554,7 13,7 H 12 V 5 C 12,2.784 10.216,1 8,1 Z M 8,3 C 9.108,3 10,3.892 10,5 V 7 H 6 V 5 C 6,3.892 6.892,3 8,3 Z"/>
</svg>
